X:1
T:Title
%%score { ( 1 3 ) | ( 2 4 ) }
L:1/8
Q:1/4=96
M:4/4
K:Ab
V:1 treble nm="Grand Piano"
V:3 treble 
V:2 bass 
V:4 bass 
V:1
 [Ec]2 [DB][CA] [CE]3 [CE] | [DF][EG][FA][=Ed] [_Ec]4 | e2 Bc d2 cB | c2 BA B4 | %4
w: Chas.~H.~Gabriel * * * *||||
 [Ec]2 [DB][CA] [CE]3 [CE] | [DF][EG][FA][=Ed] [_Ec]4 | [FB][FB][DF][FB] AAEA | G2 B2 [CEA]4 | %8
w: ||||
 [GB][GB] [Ge]>[Gd] [Ac]-[EA-c-] [EAc]2 | [GB][GB] [Ge]>[Gd] [Ac]-[EA-c-] [EAc]2 | %10
w: ||
 [=DAc][DAB][DAB][DAB] [EGB][Ge][EGB][B,EG] | [B,=DB][CDA][B,DG][A,DF] G,2 d2 | %12
w: ||
 [Ec][Ec][DB][CA] [CE]3 [CE] | [DF][EG][FA][=Ed] [_Ec]4 | [FB][FB][DF][FB] AAEA | %15
w: |||
[M:8/4] G2 B2 [CEA]4 z8 |] %16
w: |
V:2
 [A,,A,]2 [A,,A,][A,,A,] [A,,A,]3 [A,,A,] | [D,A,][D,A,][D,A,][D,A,] [A,,A,]4 | %2
 [G,B,E]2 [E,G,E][E,A,E] [E,B,E]2 [E,A,E][E,G,E] | [A,E]2 [G,B,E][F,B,=D] [E,G,E]4 | %4
 [A,,A,]2 [A,,A,][A,,A,] [A,,A,]3 [A,,A,] | [D,A,][D,A,][D,A,][D,A,] [A,,A,]4 | %6
 [D,A,][D,A,][D,A,][D,D] [E,CE][E,CE][E,A,C][E,CE] | [E,B,E]2 [E,DE]2 A,,4 | %8
 [E,E]2 B,>[K:treble]F A,[K:bass]A, A,2 | [E,E]2 B,>[K:treble]F A,[K:bass]A, A,2 | %10
 B,,B,,B,,B,, E,[E,B,]E,E, | z4 E,4 | [A,,A,][A,,A,][A,,A,][A,,A,] [A,,A,]3 [A,,A,] | %13
 [D,A,][D,A,][D,A,][D,A,] [A,,A,]4 | [D,A,][D,A,][D,A,][D,D] [E,CE][E,CE][E,A,C][E,CE] | %15
[M:8/4] [E,B,E]2 [E,DE]2 A,,4 z8 |] %16
V:3
 x8 | x8 | x8 | x8 | x8 | x8 | x8 | x8 | z4 .E2 z2 | z4 .E2 z2 | x8 | z4 E4 | x8 | x8 | x8 | %15
[M:8/4] x16 |] %16
V:4
 x8 | x8 | x8 | x8 | x8 | x8 | x8 | x8 | z2 E,2[K:treble] z4[K:bass] | %9
 z2 E,2[K:treble] z4[K:bass] | x8 | B,,B,,B,,B,, z2 B,2 | x8 | x8 | x8 |[M:8/4] x16 |] %16

